site/components/footer/SVG/g-plus.svg

<?xml version="1.0" encoding="UTF-8" standalone="no"?>
<svg width="32px" height="20px" viewBox="0 0 32 20" version="1.1" xmlns="http://www.w3.org/2000/svg" xmlns:xlink="http://www.w3.org/1999/xlink">
    <!-- Generator: sketchtool 39.1 (31720) - http://www.bohemiancoding.com/sketch -->
    <title>Google plus</title>
    <desc>Google plus logo</desc>
    <defs></defs>
    <g id="Symbols" stroke="none" stroke-width="1" fill="none" fill-rule="evenodd">
        <g id="Footer" transform="translate(-653.000000, -163.000000)" fill="#FFFFFF">
            <g id="G_plus" transform="translate(653.000000, 163.000000)">
                <g>
                    <path d="M0.0265834946,9.46220335 C0.112730448,4.33101691 4.85115339,-0.162881391 10.005329,0.00830504922 C12.474648,-0.105593256 14.7961892,0.964237253 16.6876767,2.46694912 C15.8806874,3.38016946 15.0447555,4.25983047 14.1512788,5.08254234 C11.8777484,3.51779657 8.64366235,3.07101691 6.37013188,4.87813556 C3.11697776,7.11779657 2.96919998,12.4059322 6.09773045,14.8167796 C9.14045446,17.5655932 14.8918702,16.2005084 15.7325692,11.9920339 C13.8264401,11.9635593 11.9158846,11.9920339 10.010096,11.9303389 C10.005329,10.7984745 10.000562,9.66661013 10.005329,8.53474573 C13.1914043,8.5252542 16.3774796,8.52050844 19.5683218,8.54457624 C19.7593434,11.2072881 19.4059025,14.0415254 17.7626408,16.2435593 C15.2739132,19.729322 10.2773899,20.7469491 6.37966593,19.2537288 C2.46764084,17.77 -0.30302224,13.6564406 0.0265834946,9.46220335" id="Fill-4"></path>
                    <path d="M25.6939247,5.76271186 L28.5360932,5.76271186 C28.5408602,6.70915254 28.5456272,7.66 28.5551613,8.60644068 C29.5058423,8.6159322 30.4609498,8.6159322 31.4116308,8.62542373 L31.4116308,11.4549153 C30.4609498,11.4644068 29.5106093,11.4691525 28.5551613,11.4786441 C28.5456272,12.4298305 28.5408602,13.3762712 28.5360932,14.3223729 L25.6891577,14.3223729 C25.6796237,13.3762712 25.6796237,12.4298305 25.6700896,11.4833898 C24.7194086,11.4738983 23.7639606,11.4644068 22.8136201,11.4549153 L22.8136201,8.62542373 C23.7639606,8.6159322 24.7146416,8.61118644 25.6700896,8.60644068 C25.6748566,7.65525424 25.6843907,6.70915254 25.6939247,5.76271186" id="Fill-6"></path>
                </g>
            </g>
        </g>
    </g>
</svg>

<svg width="32" height="20" viewBox="0 0 32 20" xmlns="http://www.w3.org/2000/svg"><g fill="#FFF" fill-rule="evenodd"><path d="M.027 9.462C.113 4.331 4.85-.163 10.005.008c2.47-.114 4.791.956 6.683 2.459a35.395 35.395 0 0 1-2.537 2.616c-2.273-1.565-5.507-2.012-7.78-.205-3.254 2.24-3.402 7.528-.273 9.939 3.042 2.749 8.794 1.384 9.635-2.825-1.907-.028-3.817 0-5.723-.062-.005-1.132-.01-2.263-.005-3.395a908.49 908.49 0 0 1 9.563.01c.191 2.662-.162 5.497-1.805 7.699-2.49 3.485-7.486 4.503-11.383 3.01C2.468 17.77-.303 13.656.027 9.462M25.694 5.763h2.842c.005.946.01 1.897.02 2.843.95.01 1.905.01 2.856.02v2.829c-.951.01-1.901.014-2.857.024-.01.95-.014 1.897-.019 2.843H25.69c-.01-.946-.01-1.892-.019-2.839l-2.856-.028v-2.83c.95-.01 1.9-.014 2.856-.019.005-.95.014-1.897.024-2.843"/></g></svg>
